X:394
T: HOCH SOLL EWIG LEBEN
N: F0710
O: Europa, Mitteleuropa, Deutschland
R: Geselligkeits -, Trink - Lied
M: 6/8
L: 1/8
K: Bb
 | B2Bd2d | f3d2z |
g2gfdB | f2ed2z |
d2d^c=Bc | d2de2e |
d3fec | B3d2c | B2z4

@@@ Tune index: 5825
